X: 34
T: Say Old Man can I have Your Daughter?
B: canberra pickers and fiddlers
B: tunes
M:C|
L:1/8
Q: 1/4=100
K:D
V:1 
|:+slide+[D,3F3]]F F2F2|G3E E2E2|+slide+[D,3F3]D FA2-|ADFD EF D2|
+slide+[D,3F3]]F F2F2|G3E E2E2|+slide+[D,3F3]D FA2-|ABAF (E/F/E) D2:|
|:+slide+d4 d2 ((3A/B/c/d-|d2) d2 DF AB |((3A/B/c/d) d3B AF |ABAF (E/F/E) D2|
d3d d2+slide+d2-|d2 [Ae]g fe dA|DAdA FDFG |ABAF (E/F/E) D2:||
|:[Ae]-[A2f2][Af] [A2f2] [A2f2]|[Af]-[A2g2] e [A2e2][A2e2]|[Ae]-[A2f2](e fe)a2-|aefd efde| 
[Ae]-[A2f2][Af] [A2f2] [A2f2]|[Af]-[A2g2] e [Ae]f[A2e2]|[Ae]-[A2f2](e fe)a2-|aefd efd2:|]
% abcbook-tune_id 63da5934f1c5439451ce0e9f
% abcbook-tune_composer_id 
% abcbook-link-0 https://www.youtube.com/watch?v=ipKQBhqdHg4
% abcbook-boost 0
% abcbook-difficulty 0
% abcbook-tags canberra pickers and fiddlers,old time tunes,© free
% abcbook-tablature 
% abcbook-transpose 
% abcbook-tuning DDAD
% abcbook-lastupdated 1675254068533
% abcbook-src-url https://tunebook.net/scrape/tunes.abc
% abcbook-soundfonts 
% abcbook-repeats 1
%%gchordfont "itim-music,Itim" 20

